icons/svg/package-variant.svg

﻿<?xml version="1.0" encoding="utf-8"?>
<!DOCTYPE svg PUBLIC "-//W3C//DTD SVG 1.1//EN" "http://www.w3.org/Graphics/SVG/1.1/DTD/svg11.dtd">
<svg xmlns="http://www.w3.org/2000/svg" xmlns:xlink="http://www.w3.org/1999/xlink" version="1.1" baseProfile="full" width="24" height="24" viewBox="0 0 24.00 24.00" enable-background="new 0 0 24.00 24.00" xml:space="preserve">
	<path fill="#000000" fill-opacity="1" stroke-width="0.2" stroke-linejoin="round" d="M 1.99715,10.9591C 1.51886,10.683 1.35498,10.0714 1.63112,9.5931L 3.13112,6.99503C 3.24358,6.80025 3.41166,6.65762 3.60373,6.57561L 11.4336,2.17575C 11.5946,2.0649 11.7897,2.00001 12,2.00001C 12.2103,2.00001 12.4053,2.06489 12.5664,2.17574L 20.473,6.61872C 20.6624,6.72057 20.8151,6.88165 20.9065,7.07717L 22.3618,9.59782C 22.6379,10.0761 22.474,10.6877 21.9957,10.9638L 21,11.5387L 21,16.5C 21,16.8812 20.7867,17.2125 20.473,17.3813L 12.5664,21.8243C 12.4054,21.9351 12.2103,22 12,22C 11.7897,22 11.5946,21.9351 11.4336,21.8243L 3.52716,17.3814C 3.21335,17.2127 3,16.8812 3,16.5L 3,10.9577C 2.7004,11.1315 2.31866,11.1448 1.99715,10.9591 Z M 12.0009,4.15094L 12,4.15145L 12,10.8486L 12.0009,10.8491L 17.9591,7.50001L 12.0009,4.15094 Z M 5,15.9149L 11,19.2866L 11,12.5806L 5,9.20901L 5,15.9149 Z M 19,15.9149L 19,12.6934L 13.985,15.5888C 13.67,15.7707 13.2971,15.7617 13,15.5971L 13,19.2875L 19,15.9149 Z M 13.851,13.3568L 20.1297,9.7318L 19.546,8.7207L 13.2673,12.3457L 13.851,13.3568 Z "/>
</svg>

<svg xmlns="http://www.w3.org/2000/svg" version="1.1" baseProfile="full" width="24" height="24" viewBox="0 0 24.00 24.00" xml:space="preserve"><path fill="#000" fill-opacity="1" stroke-width=".2" stroke-linejoin="round" d="M1.997 10.96c-.478-.277-.642-.89-.366-1.367l1.5-2.598c.114-.195.282-.337.474-.42l7.83-4.4c.16-.11.356-.175.566-.175.21 0 .405.065.566.176l7.907 4.443c.19.1.342.262.434.457l1.455 2.52c.276.48.112 1.09-.366 1.367L21 11.54v4.96c0 .38-.213.712-.527.88l-7.907 4.444c-.16.11-.356.176-.566.176-.21 0-.405-.065-.566-.176L3.527 17.38c-.314-.167-.527-.5-.527-.88v-5.542c-.3.174-.68.187-1.003 0zM12 4.15v6.7l5.96-3.35L12 4.15zM5 15.916l6 3.372V12.58L5 9.21v6.705zm14 0v-3.222l-5.015 2.896c-.315.18-.688.172-.985.007v3.69l6-3.372zm-5.15-2.558l6.28-3.625-.584-1.01-6.28 3.624.585 1.01z"/></svg>
